packages/xm_dkfz_net_site/Resources/Public/Icons/bookmark.svg

<svg width="100%" height="100%" viewBox="0 0 24 24" version="1.1" xmlns="http://www.w3.org/2000/svg" xmlns:xlink="http://www.w3.org/1999/xlink" xml:space="preserve" xmlns:serif="http://www.serif.com/" style="fill-rule:evenodd;clip-rule:evenodd;stroke-linejoin:round;stroke-miterlimit:2;">
    <path d="M12,18.275L2.372,23.776C1.915,24.038 1.313,24.073 0.814,23.867C0.314,23.661 0,23.25 0,22.8C0,22.8 0,3.6 0,3.6C0,1.612 2.015,0 4.5,0L19.5,0C21.985,0 24,1.612 24,3.6L24,22.8C24,23.25 23.686,23.661 23.186,23.867C22.687,24.073 22.085,24.038 21.628,23.776L12,18.275ZM21,20.468L21,3.6C21,2.937 20.328,2.4 19.5,2.4C19.5,2.4 4.5,2.4 4.5,2.4C3.672,2.4 3,2.937 3,3.6L3,20.468L11.128,15.824C11.65,15.525 12.35,15.525 12.872,15.824L21,20.468Z"/>
</svg>

<svg xmlns="http://www.w3.org/2000/svg" xml:space="preserve" style="fill-rule:evenodd;clip-rule:evenodd;stroke-linejoin:round;stroke-miterlimit:2" viewBox="0 0 24 24"><path d="m12 18.27-9.63 5.5c-.46.27-1.06.3-1.56.1-.5-.2-.81-.62-.81-1.07V3.6C0 1.61 2.02 0 4.5 0h15C21.98 0 24 1.61 24 3.6v19.2c0 .45-.31.86-.81 1.07-.5.2-1.1.17-1.56-.1L12 18.28Zm9 2.2V3.6c0-.66-.67-1.2-1.5-1.2h-15c-.83 0-1.5.54-1.5 1.2v16.87l8.13-4.65a1.8 1.8 0 0 1 1.74 0L21 20.47Z"/></svg>
